lib/icons/santiment.svg

<svg width="18" height="18" viewBox="0 0 18 18" fill="none" xmlns="http://www.w3.org/2000/svg">
<path d="M4.63069 8.99922C4.63069 9.52389 4.19849 9.94922 3.66535 9.94922C3.13221 9.94922 2.70001 9.52389 2.70001 8.99922C2.70001 8.47455 3.13221 8.04922 3.66535 8.04922C4.19849 8.04922 4.63069 8.47455 4.63069 8.99922Z" fill="#7A859E"/>
<path d="M14.3347 9.94922C14.8678 9.94922 15.3 9.52389 15.3 8.99922C15.3 8.47455 14.8678 8.04922 14.3347 8.04922C13.8015 8.04922 13.3693 8.47455 13.3693 8.99922C13.3693 9.52389 13.8015 9.94922 14.3347 9.94922Z" fill="#7A859E"/>
<path d="M10.9278 5.40651C10.1171 4.98202 9.21425 4.8477 8.4542 5.02604C7.68014 5.20767 7.00854 5.73845 6.88358 6.62489C6.77995 7.36001 7.00186 7.93505 7.38688 8.38975C7.74587 8.81373 8.24349 9.12689 8.665 9.38653C9.11834 9.66577 9.49436 9.88972 9.7726 10.1612C10.0282 10.4106 10.1651 10.6669 10.1651 11.0092C10.1651 11.3933 10.0474 11.5915 9.92318 11.7046C9.7861 11.8294 9.5657 11.9182 9.25462 11.9401C8.6135 11.9852 7.83177 11.7274 7.39965 11.3981L6.71358 12.2713C7.3572 12.7618 8.41 13.1064 9.33448 13.0413C9.8062 13.0082 10.3014 12.8638 10.6842 12.5154C11.0798 12.1552 11.2862 11.6402 11.2862 11.0092C11.2862 10.3011 10.9723 9.77751 10.5616 9.37685C10.1736 8.99825 9.66788 8.70201 9.2595 8.45047C8.81929 8.17932 8.4752 7.95111 8.2479 7.68267C8.04663 7.44496 7.93767 7.17654 7.99404 6.77671C8.04043 6.44761 8.27259 6.20364 8.71404 6.10006C9.16949 5.99319 9.7939 6.06321 10.4015 6.38137L10.9278 5.40651Z" fill="#7A859E"/>
<path fill-rule="evenodd" clip-rule="evenodd" d="M9 17.3437C13.6081 17.3437 17.3437 13.6081 17.3437 9C17.3437 4.39187 13.6081 0.65625 9 0.65625C4.39187 0.65625 0.65625 4.39187 0.65625 9C0.65625 13.6081 4.39187 17.3437 9 17.3437ZM18 9C18 13.9706 13.9706 18 9 18C4.02944 18 0 13.9706 0 9C0 4.02944 4.02944 0 9 0C13.9706 0 18 4.02944 18 9Z" fill="#7A809A"/>
</svg>

<svg width="18" height="18" fill="none" xmlns="http://www.w3.org/2000/svg"><path d="M4.63 9c0 .524-.432.95-.965.95A.958.958 0 0 1 2.7 9c0-.525.432-.95.965-.95.533 0 .966.425.966.95ZM14.335 9.95A.958.958 0 0 0 15.3 9a.958.958 0 0 0-.965-.95.958.958 0 0 0-.966.95c0 .524.433.95.966.95ZM10.928 5.407c-.81-.425-1.714-.56-2.474-.381-.774.182-1.445.712-1.57 1.599a2.15 2.15 0 0 0 .503 1.765c.359.424.856.737 1.278.997.453.279.83.503 1.108.774.255.25.392.506.392.848 0 .384-.118.582-.242.696-.137.124-.357.213-.668.235-.642.045-1.423-.213-1.855-.542l-.686.873c.643.49 1.696.835 2.62.77.472-.033.967-.177 1.35-.526.396-.36.602-.875.602-1.506 0-.708-.314-1.231-.724-1.632-.388-.379-.894-.675-1.303-.927-.44-.27-.784-.499-1.011-.767-.201-.238-.31-.506-.254-.906.046-.33.279-.573.72-.677.455-.107 1.08-.037 1.688.281l.526-.974Z" fill="#7A859E"/><path fill-rule="evenodd" clip-rule="evenodd" d="M9 17.344A8.344 8.344 0 1 0 9 .656a8.344 8.344 0 0 0 0 16.688ZM18 9A9 9 0 1 1 0 9a9 9 0 0 1 18 0Z" fill="#7A809A"/></svg>
